X: 34063
T: Reel De Lapin
R: reel
M: 4/4
K: Gmajor
|:D2|G2 B/c/d g3 f|edcB A4|D2 FA DAFA|GFGB d2 cA|
G/A/G Bd g2 gf|edcB A2 AF|DEFG "piz".A2 "piz".e2|d2 c/B/A G2:|
|:A/B/c|dBGA B3 c|dBGB A3 B|cAFG A^GAB|cBce d2 Bc|
d2 GA B2 Bc|dBGB A2 AB|cAFE "piz".D2 "piz".e2|d^c=cA G2:|

